dist/icons/svgs/palette-solid.svg

<svg xmlns="http://www.w3.org/2000/svg" width="24" height="24" fill="currentcolor" class="icon-palette-solid" viewBox="0 0 24 24">
  <path d="M22 12C22 12.0391 22 12.0781 22 12.1172C21.9609 13.5625 20.6719 14.5 19.2266 14.5H15.4375C14.3828 14.5 13.5625 15.3594 13.5625 16.375C13.5625 16.5312 13.5625 16.6484 13.6016 16.7656C13.6797 17.1953 13.8359 17.5469 13.9922 17.9375C14.2266 18.4844 14.4609 19.0312 14.4609 19.5781C14.4609 20.8281 13.6406 21.9609 12.3906 22C12.2734 22 12.1172 22 11.9609 22C6.45312 22 2 17.5469 2 12C2 6.49219 6.45312 2 12 2C17.5078 2 22 6.49219 22 12ZM7 13.25C7 12.5859 6.41406 12 5.75 12C5.04688 12 4.5 12.5859 4.5 13.25C4.5 13.9531 5.04688 14.5 5.75 14.5C6.41406 14.5 7 13.9531 7 13.25ZM7 9.5C7.66406 9.5 8.25 8.95312 8.25 8.25C8.25 7.58594 7.66406 7 7 7C6.29688 7 5.75 7.58594 5.75 8.25C5.75 8.95312 6.29688 9.5 7 9.5ZM13.25 5.75C13.25 5.08594 12.6641 4.5 12 4.5C11.2969 4.5 10.75 5.08594 10.75 5.75C10.75 6.45312 11.2969 7 12 7C12.6641 7 13.25 6.45312 13.25 5.75ZM17 9.5C17.6641 9.5 18.25 8.95312 18.25 8.25C18.25 7.58594 17.6641 7 17 7C16.2969 7 15.75 7.58594 15.75 8.25C15.75 8.95312 16.2969 9.5 17 9.5Z"/>
</svg>

<svg xmlns="http://www.w3.org/2000/svg" width="24" height="24" fill="currentColor" class="icon-palette-solid" viewBox="0 0 24 24">
  <path d="M22 12v.117c-.04 1.445-1.328 2.383-2.773 2.383h-3.79c-1.054 0-1.874.86-1.874 1.875 0 .156 0 .273.039.39.078.43.234.782.39 1.172.235.547.469 1.094.469 1.641 0 1.25-.82 2.383-2.07 2.422h-.43C6.453 22 2 17.547 2 12 2 6.492 6.453 2 12 2c5.508 0 10 4.492 10 10M7 13.25C7 12.586 6.414 12 5.75 12c-.703 0-1.25.586-1.25 1.25 0 .703.547 1.25 1.25 1.25.664 0 1.25-.547 1.25-1.25M7 9.5c.664 0 1.25-.547 1.25-1.25C8.25 7.586 7.664 7 7 7c-.703 0-1.25.586-1.25 1.25 0 .703.547 1.25 1.25 1.25m6.25-3.75c0-.664-.586-1.25-1.25-1.25-.703 0-1.25.586-1.25 1.25 0 .703.547 1.25 1.25 1.25.664 0 1.25-.547 1.25-1.25M17 9.5c.664 0 1.25-.547 1.25-1.25C18.25 7.586 17.664 7 17 7c-.703 0-1.25.586-1.25 1.25 0 .703.547 1.25 1.25 1.25"/>
</svg>
